X:999
T:Curlew, The
C:D MacPherson
S:Angus Grant, Highland Fiddle album
Z:Nigel Gatherer
L:1/8
M:6/8
K:D
d3 A2d | B>AA d>BA | d3 A2d | B>AA a>ef |
d3 A2d | B>AA d>BA | g2f e>fd | c>AA a>ef :|
d3 f2d | a>ef d>BA | d3 f2d | a>aa f>ef |
d3 f2d | a>ef d>BA | g2f e>fd | c>AA a>ef :|
d3 G>BA | d>Bd e>cA | d3 G>BB | A>ce a>ef |
d3 G>BA | d>Bd e>cA | g2f e>fd | c>AA a>ef :|
d3 a2f | d>dd e>cA | d3 a2f | d>dd a>ef |
d3 a2f | d>dd e>cA | g2f e>fd | c>AA a>ef |
d3 a2f | d>dd e>cA | d3 a2f | d>dd a>ef |
g>fg efd | G>Bd e>cA | g2f e>fd | c>AA a>ef |]
<end>
<start>
